icons/Others/lightbulb-flash-fill.svg

<svg viewBox="0 0 24 24" xmlns="http://www.w3.org/2000/svg"><path d="M7.94101 18C7.64391 16.7274 6.30412 15.6857 5.75395 14.9992C4.65645 13.6297 4 11.8915 4 10C4 5.58172 7.58172 2 12 2C16.4183 2 20 5.58172 20 10C20 11.8925 19.3428 13.6315 18.2443 15.0014C17.6944 15.687 16.3558 16.7276 16.059 18H7.94101ZM16 20V21C16 22.1046 15.1046 23 14 23H10C8.89543 23 8 22.1046 8 21V20H16ZM13 10.0048V6L8.5 12.0048H11V16.0048L15.5 10.0048H13Z"/></svg>

<svg xmlns="http://www.w3.org/2000/svg" viewBox="0 0 24 24">
    <g>
        <path fill="none" d="M0 0h24v24H0z"/>
        <path d="M7.941 18c-.297-1.273-1.637-2.314-2.187-3a8 8 0 1 1 12.49.002c-.55.685-1.888 1.726-2.185 2.998H7.94zM16 20v1a2 2 0 0 1-2 2h-4a2 2 0 0 1-2-2v-1h8zm-3-9.995V6l-4.5 6.005H11v4l4.5-6H13z"/>
    </g>
</svg>
